X:1
T:Title
%%score { ( 1 3 ) | ( 2 4 ) }
L:1/8
M:4/4
K:Eb
V:1 treble nm="Grand Piano"
V:3 treble 
V:2 bass 
V:4 bass 
V:1
 z4 z2[Q:1/4=100] EF | G2 [GB]2 [GB]2 [Ac]2 | [GB][Ac][GB]G E2 EF | G2 B2 [EG]2 [DF]2 | E6 EF | %5
 G2 [GB]2 [GB]2 [Ac]2 | [GB][Ac][GB]G E2 EF | G2 B2 [EG]2 [DF]2 |[M:3/4] E6 |[M:5/16] [Ge]3/2[GB] | %10
[M:4/4] [Ge]2 [Ge]2 [GB]2 [Ac]2 | [GB][Ac][GB]G E2 z F | G2 BB [DB]2 [DF]2 | %13
[M:17/16] [EG]/-[EG]/-[EG]/-[EG]/-[EG]/-[EG]/-[EG]/-[EG]/-[EG]-<[EG][Ge]3/2[GB] | %14
[M:4/4] [Ge]2 [Ge]2 [GB]2 [Ac]2 | [GB][Ac][GB]G E2 z F | [B,EG]2 [B,EB][CEA] [B,EG]2 [A,DF]2 | %17
[M:3/4] [G,E]6 |] %18
V:2
 z4 z2 [E,G,][E,A,E] | [E,B,E]2 [E,E]2 [E,E]2 [E,E]2 | %2
 [E,E][E,E][E,E][E,B,E] [E,G,]2 [E,G,][E,A,E] | [E,B,E]2 [E,G,E]2 [B,,B,]2 [B,,A,]2 | %4
 [E,G,]6 [E,G,][E,A,E] | [E,B,E]2 [E,E]2 [E,E]2 [E,E]2 | %6
 [E,E][E,E][E,E][E,B,E] [E,G,]2 [E,G,][E,A,D] | [E,B,E]2 [E,G,E]2 [B,,B,]2 [B,,A,]2 | %8
[M:3/4] [E,G,]6 |[M:5/16] [E,B,]3/2[E,E] |[M:4/4] [E,B,]2 [E,B,]2 [E,E]2 [E,E]2 | %11
 [E,E][E,E][E,E][E,B,E] [E,G,]2 G,A, | [E,B,E]2 [E,G,E][E,G,E] [B,,B,]2 [B,,B,]2 | %13
[M:17/16] [E,B,]/-[E,B,]/-[E,B,]/-[E,B,]/-[E,B,]/-[E,B,]/-[E,B,]/-[E,B,]/-[E,B,]-<[E,B,][E,B,]3/2[E,E] | %14
[M:4/4] [E,B,]2 [E,B,]2 [E,E]2 [E,E]2 | [E,E][E,E][E,E][E,B,E] [E,G,]2 G,A, | %16
 E,2 G,,A,, B,,2 B,,2 |[M:3/4] E,6 |] %18
V:3
 x8 | x8 | x8 | x8 | x8 | x8 | x8 | x8 |[M:3/4] x6 |[M:5/16] x5/2 |[M:4/4] x8 | z4 z2 E2 | x8 | %13
[M:17/16] x17/2 |[M:4/4] x8 | z4 z2 E2 | x8 |[M:3/4] x6 |] %18
V:4
 x8 | x8 | x8 | x8 | x8 | x8 | x8 | x8 |[M:3/4] x6 |[M:5/16] x5/2 |[M:4/4] x8 | z4 z2 E,2 | x8 | %13
[M:17/16] x17/2 |[M:4/4] x8 | z4 z2 E,2 | x8 |[M:3/4] x6 |] %18

